images/5459445.svg

<?xml version="1.0" encoding="UTF-8"?>
<svg xmlns="http://www.w3.org/2000/svg" xmlns:xlink="http://www.w3.org/1999/xlink" width="300pt" height="300pt" viewBox="0 0 300 300" version="1.1">
<defs>
<g>
<symbol overflow="visible" id="glyph0-0">
<path style="stroke:none;" d="M 0.546875 1.9375 L 0.546875 -7.75 L 6.046875 -7.75 L 6.046875 1.9375 Z M 1.171875 1.328125 L 5.4375 1.328125 L 5.4375 -7.140625 L 1.171875 -7.140625 Z M 1.171875 1.328125 "/>
</symbol>
<symbol overflow="visible" id="glyph0-1">
<path style="stroke:none;" d="M 1.078125 -8.015625 L 2.546875 -8.015625 L 6.09375 -1.3125 L 6.09375 -8.015625 L 7.15625 -8.015625 L 7.15625 0 L 5.6875 0 L 2.125 -6.703125 L 2.125 0 L 1.078125 0 Z M 1.078125 -8.015625 "/>
</symbol>
<symbol overflow="visible" id="glyph0-2">
<path style="stroke:none;" d="M 4.328125 -7.28125 C 3.546875 -7.28125 2.921875 -6.984375 2.453125 -6.390625 C 1.992188 -5.804688 1.765625 -5.007812 1.765625 -4 C 1.765625 -2.988281 1.992188 -2.1875 2.453125 -1.59375 C 2.921875 -1.007812 3.546875 -0.71875 4.328125 -0.71875 C 5.117188 -0.71875 5.742188 -1.007812 6.203125 -1.59375 C 6.660156 -2.1875 6.890625 -2.988281 6.890625 -4 C 6.890625 -5.007812 6.660156 -5.804688 6.203125 -6.390625 C 5.742188 -6.984375 5.117188 -7.28125 4.328125 -7.28125 Z M 4.328125 -8.171875 C 5.453125 -8.171875 6.351562 -7.789062 7.03125 -7.03125 C 7.707031 -6.28125 8.046875 -5.269531 8.046875 -4 C 8.046875 -2.738281 7.707031 -1.726562 7.03125 -0.96875 C 6.351562 -0.21875 5.453125 0.15625 4.328125 0.15625 C 3.203125 0.15625 2.300781 -0.21875 1.625 -0.96875 C 0.957031 -1.71875 0.625 -2.726562 0.625 -4 C 0.625 -5.269531 0.957031 -6.28125 1.625 -7.03125 C 2.300781 -7.789062 3.203125 -8.171875 4.328125 -8.171875 Z M 4.328125 -8.171875 "/>
</symbol>
<symbol overflow="visible" id="glyph0-3">
<path style="stroke:none;" d="M 1.078125 -8.015625 L 2.171875 -8.015625 L 2.171875 -4.734375 L 6.109375 -4.734375 L 6.109375 -8.015625 L 7.1875 -8.015625 L 7.1875 0 L 6.109375 0 L 6.109375 -3.8125 L 2.171875 -3.8125 L 2.171875 0 L 1.078125 0 Z M 1.078125 -8.015625 "/>
</symbol>
</g>
</defs>
<g id="surface40217">
<rect x="0" y="0" width="300" height="300" style="fill:rgb(100%,100%,100%);fill-opacity:1;stroke:none;"/>
<path style="fill:none;stroke-width:1.2;stroke-linecap:butt;stroke-linejoin:miter;stroke:rgb(0%,0%,0%);stroke-opacity:1;stroke-miterlimit:10;" d="M 100.402344 49.808594 L 120.242188 68.617188 "/>
<path style=" stroke:none;fill-rule:nonzero;fill:rgb(0%,0%,0%);fill-opacity:1;" d="M 113.871094 95.203125 L 124.933594 69.742188 L 115.550781 67.496094 Z M 113.871094 95.203125 "/>
<path style="fill:none;stroke-width:1.2;stroke-linecap:butt;stroke-linejoin:miter;stroke:rgb(0%,0%,0%);stroke-opacity:1;stroke-miterlimit:10;" d="M 113.871094 95.203125 L 87.664062 102.980469 "/>
<path style="fill:none;stroke-width:1.2;stroke-linecap:butt;stroke-linejoin:miter;stroke:rgb(0%,0%,0%);stroke-opacity:1;stroke-miterlimit:10;" d="M 133.710938 114.011719 L 113.871094 95.203125 "/>
<path style="fill:none;stroke-width:1.2;stroke-linecap:butt;stroke-linejoin:miter;stroke:rgb(0%,0%,0%);stroke-opacity:1;stroke-miterlimit:10;" d="M 87.664062 102.980469 L 81.296875 129.566406 "/>
<path style="fill:none;stroke-width:1.2;stroke-linecap:butt;stroke-linejoin:miter;stroke:rgb(0%,0%,0%);stroke-opacity:1;stroke-miterlimit:10;" d="M 87.664062 102.980469 L 67.824219 84.171875 "/>
<path style="fill:none;stroke-width:1.2;stroke-linecap:butt;stroke-linejoin:miter;stroke:rgb(0%,0%,0%);stroke-opacity:1;stroke-miterlimit:10;" d="M 81.296875 129.566406 L 101.136719 148.375 "/>
<path style="fill:none;stroke-width:1.2;stroke-linecap:butt;stroke-linejoin:miter;stroke:rgb(0%,0%,0%);stroke-opacity:1;stroke-miterlimit:10;" d="M 81.296875 129.566406 L 55.089844 137.34375 "/>
<path style="fill:none;stroke-width:1.2;stroke-linecap:butt;stroke-linejoin:miter;stroke:rgb(0%,0%,0%);stroke-opacity:1;stroke-miterlimit:10;" d="M 101.136719 148.375 L 94.769531 174.957031 "/>
<path style="fill:none;stroke-width:1.2;stroke-linecap:butt;stroke-linejoin:miter;stroke:rgb(0%,0%,0%);stroke-opacity:1;stroke-miterlimit:10;" d="M 127.34375 140.597656 L 101.136719 148.375 "/>
<path style="fill:none;stroke-width:1.2;stroke-linecap:butt;stroke-linejoin:miter;stroke:rgb(0%,0%,0%);stroke-opacity:1;stroke-miterlimit:10;" d="M 94.769531 174.957031 L 114.605469 193.765625 "/>
<path style="fill:none;stroke-width:1;stroke-linecap:butt;stroke-linejoin:miter;stroke:rgb(0%,0%,0%);stroke-opacity:1;stroke-miterlimit:10;" d="M 140.816406 185.988281 L 140.816406 185.988281 M 137.835938 186.328125 L 138.132812 187.328125 M 134.855469 186.671875 L 135.445312 188.667969 M 131.875 187.011719 L 132.761719 190.011719 M 128.890625 187.351562 L 130.078125 191.351562 M 125.910156 187.691406 L 127.394531 192.691406 M 122.929688 188.035156 L 124.710938 194.03125 M 119.949219 188.375 L 122.027344 195.371094 M 116.96875 188.714844 L 119.34375 196.710938 M 113.988281 189.054688 L 116.660156 198.050781 M 113.234375 189.140625 L 115.980469 198.390625 "/>
<path style="fill:none;stroke-width:1.2;stroke-linecap:butt;stroke-linejoin:miter;stroke:rgb(0%,0%,0%);stroke-opacity:1;stroke-miterlimit:10;" d="M 140.816406 185.988281 L 147.183594 159.402344 "/>
<path style="fill:none;stroke-width:1.2;stroke-linecap:butt;stroke-linejoin:miter;stroke:rgb(0%,0%,0%);stroke-opacity:1;stroke-miterlimit:10;" d="M 160.652344 204.796875 L 140.816406 185.988281 "/>
<path style="fill:none;stroke-width:1;stroke-linecap:butt;stroke-linejoin:miter;stroke:rgb(0%,0%,0%);stroke-opacity:1;stroke-miterlimit:10;" d="M 147.183594 159.402344 L 147.183594 159.402344 M 145.398438 156.992188 L 144.679688 157.75 M 143.613281 154.582031 L 142.175781 156.09375 M 141.828125 152.171875 L 139.675781 154.441406 M 140.042969 149.761719 L 137.171875 152.785156 M 138.257812 147.347656 L 134.667969 151.132812 M 136.472656 144.9375 L 132.167969 149.480469 M 134.6875 142.527344 L 129.664062 147.824219 M 132.898438 140.117188 L 127.160156 146.171875 M 131.113281 137.707031 L 124.660156 144.515625 M 130.664062 137.09375 L 124.023438 144.097656 "/>
<path style="fill:none;stroke-width:1.2;stroke-linecap:butt;stroke-linejoin:miter;stroke:rgb(0%,0%,0%);stroke-opacity:1;stroke-miterlimit:10;" d="M 173.390625 151.625 L 147.183594 159.402344 "/>
<path style="fill:none;stroke-width:1.2;stroke-linecap:butt;stroke-linejoin:miter;stroke:rgb(0%,0%,0%);stroke-opacity:1;stroke-miterlimit:10;" d="M 127.34375 140.597656 L 133.710938 114.011719 "/>
<path style="fill:none;stroke-width:1.2;stroke-linecap:butt;stroke-linejoin:miter;stroke:rgb(0%,0%,0%);stroke-opacity:1;stroke-miterlimit:10;" d="M 121.726562 136.4375 L 126.820312 115.171875 "/>
<path style="fill:none;stroke-width:1.2;stroke-linecap:butt;stroke-linejoin:miter;stroke:rgb(0%,0%,0%);stroke-opacity:1;stroke-miterlimit:10;" d="M 133.710938 114.011719 L 159.917969 106.234375 "/>
<path style="fill:none;stroke-width:1.2;stroke-linecap:butt;stroke-linejoin:miter;stroke:rgb(0%,0%,0%);stroke-opacity:1;stroke-miterlimit:10;" d="M 159.917969 106.234375 L 169.839844 115.636719 "/>
<path style="fill:none;stroke-width:1.2;stroke-linecap:butt;stroke-linejoin:miter;stroke:rgb(0%,0%,100%);stroke-opacity:1;stroke-miterlimit:10;" d="M 169.839844 115.636719 L 179.757812 125.042969 "/>
<path style="fill:none;stroke-width:1.2;stroke-linecap:butt;stroke-linejoin:miter;stroke:rgb(0%,0%,100%);stroke-opacity:1;stroke-miterlimit:10;" d="M 179.757812 125.042969 L 176.574219 138.332031 "/>
<path style="fill:none;stroke-width:1.2;stroke-linecap:butt;stroke-linejoin:miter;stroke:rgb(0%,0%,0%);stroke-opacity:1;stroke-miterlimit:10;" d="M 176.574219 138.332031 L 173.390625 151.625 "/>
<path style="fill:none;stroke-width:1.2;stroke-linecap:butt;stroke-linejoin:miter;stroke:rgb(0%,0%,100%);stroke-opacity:1;stroke-miterlimit:10;" d="M 179.757812 125.042969 L 192.863281 121.152344 "/>
<path style="fill:none;stroke-width:1.2;stroke-linecap:butt;stroke-linejoin:miter;stroke:rgb(0%,0%,0%);stroke-opacity:1;stroke-miterlimit:10;" d="M 192.863281 121.152344 L 205.964844 117.261719 "/>
<path style=" stroke:none;fill-rule:nonzero;fill:rgb(100%,100%,100%);fill-opacity:1;" d="M 175.757812 118.542969 L 183.757812 118.542969 L 183.757812 131.542969 L 175.757812 131.542969 Z M 175.757812 118.542969 "/>
<g style="fill:rgb(0%,0%,100%);fill-opacity:1;">
  <use xlink:href="#glyph0-1" x="175.757812" y="128.444336"/>
</g>
<path style="fill:none;stroke-width:1.2;stroke-linecap:butt;stroke-linejoin:miter;stroke:rgb(0%,0%,0%);stroke-opacity:1;stroke-miterlimit:10;" d="M 173.390625 151.625 L 193.230469 170.433594 "/>
<path style=" stroke:none;fill-rule:nonzero;fill:rgb(0%,0%,0%);fill-opacity:1;" d="M 173.390625 151.625 L 178.078125 137.054688 L 168.433594 137.144531 Z M 173.390625 151.625 "/>
<path style="fill:none;stroke-width:1.2;stroke-linecap:butt;stroke-linejoin:miter;stroke:rgb(0%,0%,0%);stroke-opacity:1;stroke-miterlimit:10;" d="M 193.230469 170.433594 L 190.046875 183.726562 "/>
<path style="fill:none;stroke-width:1.2;stroke-linecap:butt;stroke-linejoin:miter;stroke:rgb(100%,0%,0%);stroke-opacity:1;stroke-miterlimit:10;" d="M 190.046875 183.726562 L 186.863281 197.019531 "/>
<path style="fill:none;stroke-width:1.2;stroke-linecap:butt;stroke-linejoin:miter;stroke:rgb(100%,0%,0%);stroke-opacity:1;stroke-miterlimit:10;" d="M 186.863281 197.019531 L 173.757812 200.90625 "/>
<path style="fill:none;stroke-width:1.2;stroke-linecap:butt;stroke-linejoin:miter;stroke:rgb(0%,0%,0%);stroke-opacity:1;stroke-miterlimit:10;" d="M 173.757812 200.90625 L 160.652344 204.796875 "/>
<path style=" stroke:none;fill-rule:nonzero;fill:rgb(100%,100%,100%);fill-opacity:1;" d="M 182.863281 190.519531 L 191.863281 190.519531 L 191.863281 203.519531 L 182.863281 203.519531 Z M 182.863281 190.519531 "/>
<g style="fill:rgb(100%,0%,0%);fill-opacity:1;">
  <use xlink:href="#glyph0-2" x="182.863281" y="200.420898"/>
</g>
<path style="fill:none;stroke-width:1.2;stroke-linecap:butt;stroke-linejoin:miter;stroke:rgb(0%,0%,0%);stroke-opacity:1;stroke-miterlimit:10;" d="M 160.652344 204.796875 L 157.46875 218.089844 "/>
<path style="fill:none;stroke-width:1.2;stroke-linecap:butt;stroke-linejoin:miter;stroke:rgb(100%,0%,0%);stroke-opacity:1;stroke-miterlimit:10;" d="M 157.46875 218.089844 L 154.285156 231.382812 "/>
<path style="fill:none;stroke-width:1.2;stroke-linecap:butt;stroke-linejoin:miter;stroke:rgb(100%,0%,0%);stroke-opacity:1;stroke-miterlimit:10;" d="M 154.285156 231.382812 L 164.207031 240.785156 "/>
<path style="fill:none;stroke-width:1.2;stroke-linecap:butt;stroke-linejoin:miter;stroke:rgb(0%,0%,0%);stroke-opacity:1;stroke-miterlimit:10;" d="M 164.207031 240.785156 L 174.125 250.191406 "/>
<path style=" stroke:none;fill-rule:nonzero;fill:rgb(100%,100%,100%);fill-opacity:1;" d="M 150.285156 224.882812 L 159.285156 224.882812 L 159.285156 237.882812 L 150.285156 237.882812 Z M 150.285156 224.882812 "/>
<g style="fill:rgb(100%,0%,0%);fill-opacity:1;">
  <use xlink:href="#glyph0-2" x="150.285156" y="234.78418"/>
</g>
<path style="fill:none;stroke-width:1.2;stroke-linecap:butt;stroke-linejoin:miter;stroke:rgb(0%,0%,0%);stroke-opacity:1;stroke-miterlimit:10;" d="M 203.753906 119.597656 L 213.671875 129 "/>
<path style="fill:none;stroke-width:1.2;stroke-linecap:butt;stroke-linejoin:miter;stroke:rgb(100%,0%,0%);stroke-opacity:1;stroke-miterlimit:10;" d="M 213.671875 129 L 223.59375 138.40625 "/>
<path style="fill:none;stroke-width:1.2;stroke-linecap:butt;stroke-linejoin:miter;stroke:rgb(0%,0%,0%);stroke-opacity:1;stroke-miterlimit:10;" d="M 208.179688 114.929688 L 218.097656 124.332031 "/>
<path style="fill:none;stroke-width:1.2;stroke-linecap:butt;stroke-linejoin:miter;stroke:rgb(100%,0%,0%);stroke-opacity:1;stroke-miterlimit:10;" d="M 218.097656 124.332031 L 228.019531 133.738281 "/>
<path style="fill:none;stroke-width:1.2;stroke-linecap:butt;stroke-linejoin:miter;stroke:rgb(0%,0%,0%);stroke-opacity:1;stroke-miterlimit:10;" d="M 205.964844 117.261719 L 209.152344 103.972656 "/>
<path style="fill:none;stroke-width:1.2;stroke-linecap:butt;stroke-linejoin:miter;stroke:rgb(100%,0%,0%);stroke-opacity:1;stroke-miterlimit:10;" d="M 209.152344 103.972656 L 212.335938 90.679688 "/>
<path style=" stroke:none;fill-rule:nonzero;fill:rgb(100%,100%,100%);fill-opacity:1;" d="M 221.804688 129.570312 L 230.804688 129.570312 L 230.804688 142.570312 L 221.804688 142.570312 Z M 221.804688 129.570312 "/>
<g style="fill:rgb(100%,0%,0%);fill-opacity:1;">
  <use xlink:href="#glyph0-2" x="221.804688" y="139.47168"/>
</g>
<path style="fill:none;stroke-width:1.2;stroke-linecap:butt;stroke-linejoin:miter;stroke:rgb(100%,0%,0%);stroke-opacity:1;stroke-miterlimit:10;" d="M 212.335938 90.679688 L 225.4375 86.789062 "/>
<path style="fill:none;stroke-width:1.2;stroke-linecap:butt;stroke-linejoin:miter;stroke:rgb(0%,0%,0%);stroke-opacity:1;stroke-miterlimit:10;" d="M 225.4375 86.789062 L 238.542969 82.902344 "/>
<path style=" stroke:none;fill-rule:nonzero;fill:rgb(100%,100%,100%);fill-opacity:1;" d="M 208.335938 84.179688 L 217.335938 84.179688 L 217.335938 97.179688 L 208.335938 97.179688 Z M 208.335938 84.179688 "/>
<g style="fill:rgb(100%,0%,0%);fill-opacity:1;">
  <use xlink:href="#glyph0-2" x="208.335938" y="94.081055"/>
</g>
<path style="fill:none;stroke-width:1.2;stroke-linecap:butt;stroke-linejoin:miter;stroke:rgb(0%,0%,0%);stroke-opacity:1;stroke-miterlimit:10;" d="M 238.542969 82.902344 L 230.765625 56.695312 "/>
<path style="fill:none;stroke-width:1.2;stroke-linecap:butt;stroke-linejoin:miter;stroke:rgb(0%,0%,0%);stroke-opacity:1;stroke-miterlimit:10;" d="M 238.542969 82.902344 L 246.320312 109.109375 "/>
<path style="fill:none;stroke-width:1.2;stroke-linecap:butt;stroke-linejoin:miter;stroke:rgb(0%,0%,0%);stroke-opacity:1;stroke-miterlimit:10;" d="M 238.542969 82.902344 L 264.75 75.125 "/>
<path style="fill:none;stroke-width:1.2;stroke-linecap:butt;stroke-linejoin:miter;stroke:rgb(0%,0%,0%);stroke-opacity:1;stroke-miterlimit:10;" d="M 55.089844 137.34375 L 45.167969 127.941406 "/>
<path style="fill:none;stroke-width:1.2;stroke-linecap:butt;stroke-linejoin:miter;stroke:rgb(100%,0%,0%);stroke-opacity:1;stroke-miterlimit:10;" d="M 45.167969 127.941406 L 35.25 118.535156 "/>
<path style=" stroke:none;fill-rule:nonzero;fill:rgb(100%,100%,100%);fill-opacity:1;" d="M 18.25 112.035156 L 35.25 112.035156 L 35.25 125.035156 L 18.25 125.035156 Z M 18.25 112.035156 "/>
<g style="fill:rgb(100%,0%,0%);fill-opacity:1;">
  <use xlink:href="#glyph0-3" x="18.25" y="121.936523"/>
  <use xlink:href="#glyph0-2" x="26.274414" y="121.936523"/>
</g>
<path style="fill:none;stroke-width:1.2;stroke-linecap:butt;stroke-linejoin:miter;stroke:rgb(0%,0%,0%);stroke-opacity:1;stroke-miterlimit:10;" d="M 67.824219 84.171875 L 71.011719 70.878906 "/>
<path style="fill:none;stroke-width:1.2;stroke-linecap:butt;stroke-linejoin:miter;stroke:rgb(100%,0%,0%);stroke-opacity:1;stroke-miterlimit:10;" d="M 71.011719 70.878906 L 74.195312 57.589844 "/>
<path style=" stroke:none;fill-rule:nonzero;fill:rgb(100%,100%,100%);fill-opacity:1;" d="M 66.195312 51.089844 L 83.195312 51.089844 L 83.195312 64.089844 L 66.195312 64.089844 Z M 66.195312 51.089844 "/>
<g style="fill:rgb(100%,0%,0%);fill-opacity:1;">
  <use xlink:href="#glyph0-2" x="66.195312" y="60.991211"/>
  <use xlink:href="#glyph0-3" x="74.595703" y="60.991211"/>
</g>
</g>
</svg>

<svg xmlns="http://www.w3.org/2000/svg" xmlns:xlink="http://www.w3.org/1999/xlink" width="300pt" height="300pt" viewBox="0 0 300 300"><defs><symbol overflow="visible"><path d="M.547 1.938V-7.75h5.5v9.688zm.625-.61h4.266v-8.47H1.171zm0 0"/></symbol><symbol overflow="visible" id="a"><path d="M1.078-8.016h1.47l3.546 6.704v-6.704h1.062V0H5.688L2.124-6.703V0H1.078zm0 0"/></symbol><symbol overflow="visible" id="b"><path d="M4.328-7.28c-.78 0-1.406.296-1.875.89-.46.585-.687 1.382-.687 2.39 0 1.012.226 1.813.687 2.406.47.586 1.094.875 1.875.875.79 0 1.414-.288 1.875-.874.457-.593.688-1.394.688-2.406 0-1.008-.23-1.805-.687-2.39-.46-.594-1.086-.89-1.875-.89zm0-.892c1.125 0 2.024.383 2.703 1.14C7.708-6.28 8.048-5.27 8.048-4c0 1.262-.34 2.273-1.016 3.03C6.353-.22 5.454.157 4.33.157S2.3-.22 1.625-.97c-.668-.75-1-1.757-1-3.03 0-1.27.332-2.28 1-3.03.676-.76 1.578-1.142 2.703-1.142zm0 0"/></symbol><symbol overflow="visible" id="c"><path d="M1.078-8.016h1.094v3.282H6.11v-3.282h1.077V0H6.11v-3.813H2.17V0H1.078zm0 0"/></symbol></defs><g><path fill="#fff" d="M0 0h300v300H0z"/><path d="M100.402 49.81l19.84 18.807" stroke-width="1.2" stroke="#000" stroke-miterlimit="10" fill="none"/><path d="M113.87 95.203l11.064-25.46-9.383-2.247zm0 0"/><path d="M113.87 95.203l-26.206 7.777M133.71 114.012l-19.84-18.81M87.664 102.98l-6.367 26.586M87.664 102.98l-19.84-18.808M81.297 129.566l19.84 18.81M81.297 129.566l-26.207 7.778M101.137 148.375l-6.367 26.582M127.344 140.598l-26.207 7.777M94.77 174.957l19.835 18.81" stroke-width="1.2" stroke="#000" stroke-miterlimit="10" fill="none"/><path d="M140.816 185.988m-2.98.34l.297 1m-3.278-.656l.59 1.996m-3.57-1.656l.887 3m-3.87-2.66l1.186 4m-4.168-3.66l1.485 5m-4.465-4.657l1.78 5.996m-4.76-5.655l2.077 6.996m-5.058-6.655l2.374 7.996m-5.356-7.655l2.672 8.996m-3.426-8.91l2.746 9.25" stroke="#000" stroke-miterlimit="10" fill="none"/><path d="M140.816 185.988l6.368-26.586M160.652 204.797l-19.836-18.81" stroke-width="1.2" stroke="#000" stroke-miterlimit="10" fill="none"/><path d="M147.184 159.402m-1.786-2.41l-.718.758m-1.067-3.168l-1.437 1.512m-.348-3.922l-2.152 2.27m.367-4.68l-2.87 3.023m1.085-5.437l-3.59 3.785m1.805-6.196l-4.305 4.543m2.52-6.953l-5.024 5.297m3.234-7.707l-5.738 6.055m3.953-8.465l-6.453 6.81m6.004-7.423l-6.64 7.004" stroke="#000" stroke-miterlimit="10" fill="none"/><path d="M173.39 151.625l-26.206 7.777M127.344 140.598l6.367-26.586M121.727 136.438l5.093-21.266M133.71 114.012l26.208-7.778M159.918 106.234l9.922 9.403" stroke-width="1.2" stroke="#000" stroke-miterlimit="10" fill="none"/><path d="M169.84 115.637l9.918 9.406M179.758 125.043l-3.184 13.29" stroke-width="1.2" stroke="#00f" stroke-miterlimit="10" fill="none"/><path d="M176.574 138.332l-3.183 13.293" stroke-width="1.2" stroke="#000" stroke-miterlimit="10" fill="none"/><path d="M179.758 125.043l13.105-3.89" stroke-width="1.2" stroke="#00f" stroke-miterlimit="10" fill="none"/><path d="M192.863 121.152l13.102-3.89" stroke-width="1.2" stroke="#000" stroke-miterlimit="10" fill="none"/><path d="M175.758 118.543h8v13h-8zm0 0" fill="#fff"/><use xlink:href="#a" x="175.758" y="128.444" fill="#00f"/><path d="M173.39 151.625l19.84 18.81" stroke-width="1.2" stroke="#000" stroke-miterlimit="10" fill="none"/><path d="M173.39 151.625l4.688-14.57-9.644.09zm0 0"/><path d="M193.23 170.434l-3.183 13.293" stroke-width="1.2" stroke="#000" stroke-miterlimit="10" fill="none"/><path d="M190.047 183.727l-3.184 13.293M186.863 197.02l-13.105 3.886" stroke-width="1.2" stroke="#f00" stroke-miterlimit="10" fill="none"/><path d="M173.758 200.906l-13.106 3.89" stroke-width="1.2" stroke="#000" stroke-miterlimit="10" fill="none"/><path d="M182.863 190.52h9v13h-9zm0 0" fill="#fff"/><use xlink:href="#b" x="182.863" y="200.421" fill="#f00"/><path d="M160.652 204.797l-3.183 13.293" stroke-width="1.2" stroke="#000" stroke-miterlimit="10" fill="none"/><path d="M157.47 218.09l-3.185 13.293M154.285 231.383l9.922 9.402" stroke-width="1.2" stroke="#f00" stroke-miterlimit="10" fill="none"/><path d="M164.207 240.785l9.918 9.406" stroke-width="1.2" stroke="#000" stroke-miterlimit="10" fill="none"/><path d="M150.285 224.883h9v13h-9zm0 0" fill="#fff"/><use xlink:href="#b" x="150.285" y="234.784" fill="#f00"/><path d="M203.754 119.598l9.918 9.402" stroke-width="1.2" stroke="#000" stroke-miterlimit="10" fill="none"/><path d="M213.672 129l9.922 9.406" stroke-width="1.2" stroke="#f00" stroke-miterlimit="10" fill="none"/><path d="M208.18 114.93l9.918 9.402" stroke-width="1.2" stroke="#000" stroke-miterlimit="10" fill="none"/><path d="M218.098 124.332l9.922 9.406" stroke-width="1.2" stroke="#f00" stroke-miterlimit="10" fill="none"/><path d="M205.965 117.262l3.187-13.29" stroke-width="1.2" stroke="#000" stroke-miterlimit="10" fill="none"/><path d="M209.152 103.973l3.184-13.293" stroke-width="1.2" stroke="#f00" stroke-miterlimit="10" fill="none"/><path d="M221.805 129.57h9v13h-9zm0 0" fill="#fff"/><use xlink:href="#b" x="221.805" y="139.472" fill="#f00"/><path d="M212.336 90.68l13.1-3.89" stroke-width="1.2" stroke="#f00" stroke-miterlimit="10" fill="none"/><path d="M225.438 86.79l13.105-3.888" stroke-width="1.2" stroke="#000" stroke-miterlimit="10" fill="none"/><path d="M208.336 84.18h9v13h-9zm0 0" fill="#fff"/><use xlink:href="#b" x="208.336" y="94.081" fill="#f00"/><path d="M238.543 82.902l-7.777-26.207M238.543 82.902l7.777 26.207M238.543 82.902l26.207-7.777M55.09 137.344l-9.922-9.403" stroke-width="1.2" stroke="#000" stroke-miterlimit="10" fill="none"/><path d="M45.168 127.94l-9.918-9.405" stroke-width="1.2" stroke="#f00" stroke-miterlimit="10" fill="none"/><path d="M18.25 112.035h17v13h-17zm0 0" fill="#fff"/><g fill="#f00"><use xlink:href="#c" x="18.25" y="121.937"/><use xlink:href="#b" x="26.274" y="121.937"/></g><path d="M67.824 84.172l3.188-13.293" stroke-width="1.2" stroke="#000" stroke-miterlimit="10" fill="none"/><path d="M71.012 70.88l3.183-13.29" stroke-width="1.2" stroke="#f00" stroke-miterlimit="10" fill="none"/><path d="M66.195 51.09h17v13h-17zm0 0" fill="#fff"/><g fill="#f00"><use xlink:href="#b" x="66.195" y="60.991"/><use xlink:href="#c" x="74.596" y="60.991"/></g></g></svg>
